X: 30372
M: 2/4
L: 1/16
K: G
dc |\
|: de |\
f2fg a2fd | ^cdef g2fe | d2fd B2gf | efed ^cAde |\
f2fg a2fd | ^cdef g2fe | dfeg fde^c | d2d2d2 :|


